;Project plant shelf main
;Created by Estlcam version 10 build 10.013
;Machining time about 00:10:46 hours

G90
M03 S20000
G00 X0.0000 Y0.0000 Z0.0000
G00 Z2.0000


;No. 1: Part 1
G00 X9.9896 Y12.3396
G00 Z0.5000
G01 Z-0.1000 S20000
G03 X10.2950 Y12.2750 I0.3184 J0.7504
G01 X15.1292
G01 X23.8396 Y3.5397
G03 X24.2169 Y3.3757 I0.4496 J0.5183
G01 X45.1543 Y3.3750
G01 X45.6396 Y2.8896
G01 X45.6517 Y2.8808
G01 X45.6658 Y2.8759
G01 X48.5000 Y2.8750
G03 X48.5495 Y2.9038 I-0.0046 J0.0648
G01 X49.0207 Y3.3750
G01 X50.8293
G01 X51.0646 Y3.1396
G03 X51.1200 Y3.1250 I0.0426 J0.0491
G01 X53.2500
G01 X53.2648 Y3.1272
G01 X53.2782 Y3.1337
G01 X53.5207 Y3.3750
G01 X55.9043
G01 X56.1396 Y3.1396
G03 X56.1950 Y3.1250 I0.0426 J0.0491
G01 X58.3250
G01 X58.3398 Y3.1272
G01 X58.3532 Y3.1337
G01 X58.6188 Y3.3745
G01 X60.9793 Y3.3750
G01 X61.2146 Y3.1396
G01 X61.2267 Y3.1308
G01 X61.2408 Y3.1259
G01 X63.4000 Y3.1250
G01 X63.4148 Y3.1272
G01 X63.4282 Y3.1337
G01 X63.6938 Y3.3745
G01 X66.0550 Y3.3750
G01 X66.3164 Y3.1380
G01 X66.3288 Y3.1297
G01 X66.3431 Y3.1255
G01 X68.5000 Y3.1250
G01 X68.5148 Y3.1272
G01 X68.5282 Y3.1337
G01 X68.7707 Y3.3750
G01 X76.3000
G01 X76.3148 Y3.3772
G01 X76.4640 Y3.4270
G03 X76.7599 Y3.6260 I-0.1033 J0.4731
G03 X76.8030 Y3.6657 I-0.0167 J0.0614
G01 X80.9175 Y10.3237
G03 X81.0000 Y10.6200 I-1.1294 J0.4740
G01 Y28.7750
G01 X81.3000
G01 X81.3148 Y28.7772
G03 X81.6942 Y29.1517 I-0.9620 J1.3544
G03 X81.6978 Y29.6898 I-1.9494 J0.2819
G03 X81.3233 Y30.0692 I-1.5626 J-1.1675
G01 X81.3092 Y30.0741
G01 X81.2800 Y30.0750
G01 X79.6000
G01 X79.5852 Y30.0728
G03 X79.2058 Y29.6983 I1.1675 J-1.5626
G01 X79.2009 Y29.6842
G01 X79.2000 Y29.1750
G01 X79.2022 Y29.1602
G03 X79.5767 Y28.7808 I1.3544 J0.9620
G03 X79.9000 Y28.7750 I0.1833 J1.2099
G01 Y10.7700
G01 X79.8970 Y10.7594
G01 X75.9972 Y4.4750
G01 X68.7721
G01 X68.5370 Y4.7336
G03 X68.4800 Y4.7500 I-0.0438 J-0.0452
G01 X66.3500
G01 X66.3352 Y4.7478
G01 X66.3218 Y4.7413
G01 X66.0543 Y4.4750
G01 X63.6957
G01 X63.4354 Y4.7354
G03 X63.3800 Y4.7500 I-0.0426 J-0.0491
G01 X61.2500
G03 X61.1995 Y4.7188 I0.0040 J-0.0629
G01 X60.9779 Y4.4750
G01 X58.6207
G01 X58.3604 Y4.7354
G03 X58.3050 Y4.7500 I-0.0426 J-0.0491
G01 X56.1750
G03 X56.1245 Y4.7188 I0.0040 J-0.0629
G01 X55.9029 Y4.4750
G01 X53.5221
G01 X53.2870 Y4.7336
G03 X53.2300 Y4.7500 I-0.0438 J-0.0452
G01 X51.1000
G03 X51.0495 Y4.7188 I0.0040 J-0.0629
G01 X50.8279 Y4.4750
G01 X49.0207
G01 X48.5354 Y4.9604
G01 X48.5233 Y4.9692
G01 X48.5092 Y4.9741
G01 X46.5700 Y4.9750
G01 X29.8750 Y16.9007
G01 Y29.1043
G01 X30.8207 Y30.0500
G01 X31.7793
G01 X32.0146 Y29.8146
G01 X32.0267 Y29.8058
G01 X32.0408 Y29.8009
G01 X34.2000 Y29.8000
G01 X34.2148 Y29.8022
G03 X34.6935 Y30.2504 I-1.5446 J2.1298
G03 X34.6978 Y30.9398 I-2.3199 J0.3589
G03 X34.2221 Y31.3949 I-1.7690 J-1.3729
G01 X34.2078 Y31.3994
G01 X32.0500 Y31.4000
G01 X32.0352 Y31.3978
G01 X32.0218 Y31.3913
G01 X31.7793 Y31.1500
G01 X30.5750
G01 X30.5602 Y31.1478
G01 X30.5205 Y31.1287
G03 X30.1904 Y30.9861 I0.0196 J-0.4988
G01 X28.9146 Y29.7104
G03 X28.8259 Y29.5842 I0.3512 J-0.3415
G02 X28.7771 Y29.4642 I-1.0477 J0.3560
G01 X28.7750 Y29.4300
G01 Y16.6250
G02 X28.8000 Y16.4250 I-0.4121 J-0.1531
G03 X29.0122 Y16.1727 I0.4414 J0.1559
G01 X45.2471 Y4.5692
G01 X45.1543 Y4.4750
G01 X37.1707
G01 X27.3250 Y14.3207
G01 Y34.6150
G01 X27.3350 Y34.6250
G01 X28.2000
G01 X28.2148 Y34.6272
G03 X28.8197 Y35.2526 I-1.8588 J2.4033
G03 X28.8228 Y36.1148 I-3.3777 J0.4431
G03 X28.2233 Y36.7192 I-2.5201 J-1.8998
G01 X28.2092 Y36.7241
G01 X28.1800 Y36.7250
G01 X25.3500
G01 X25.3352 Y36.7228
G03 X24.7308 Y36.1233 I1.8998 J-2.5201
G01 X24.7259 Y36.1092
G01 X24.7250 Y35.2750
G01 X24.7272 Y35.2602
G03 X25.3257 Y34.6313 I2.7648 J2.0317
G03 X26.2150 Y34.6250 I0.4668 J3.1299
G01 X26.2250 Y34.6150
G01 Y14.1000
G02 X26.2500 Y13.9500 I-0.2368 J-0.1166
G03 X26.3589 Y13.7652 I0.3668 J0.0916
G03 X26.4038 Y13.6755 I0.1257 J0.0068
G01 X35.6043 Y4.4750
G01 X30.8207
G01 X22.2500 Y13.0457
G01 Y38.8293
G01 X22.7354 Y39.3146
G01 X22.7442 Y39.3267
G01 X22.7491 Y39.3408
G01 X22.7500 Y42.1750
G01 X22.7478 Y42.1898
G03 X22.1224 Y42.7947 I-2.4033 J-1.8588
G03 X21.2602 Y42.7978 I-0.4431 J-3.3777
G03 X20.6558 Y42.1983 I1.8998 J-2.5201
G01 X20.6509 Y42.1842
G01 X20.6500 Y42.1550
G01 Y40.4957
G01 X20.2043 Y40.0500
G01 X18.1205
G01 X15.9000 Y42.2459
G01 Y45.0250
G01 X17.7000
G01 X17.7148 Y45.0272
G03 X18.1699 Y45.5029 I-1.3729 J1.7690
G03 X18.1728 Y46.1648 I-2.6337 J0.3424
G03 X17.7246 Y46.6435 I-2.1298 J-1.5446
G01 X17.7106 Y46.6489
G01 X17.6800 Y46.6500
G01 X15.5500
G03 X15.5015 Y46.6233 I0.0053 J-0.0672
G01 X15.2310 Y46.3754
G03 X14.8516 Y46.1125 I0.0895 J-0.5343
G01 X14.8010 Y45.8598
G01 X14.8000 Y45.8300
G01 Y41.9000
G01 X14.8022 Y41.8852
G02 X14.8522 Y41.7602 I-0.0532 J-0.0938
G01 X14.8587 Y41.7468
G01 X14.8788 Y41.7255
G01 X17.4895 Y39.0898
G03 X17.6158 Y39.0009 I0.3416 J0.3509
G01 X17.6793 Y39.0000
G03 X17.7700 Y38.9500 I0.0805 J0.0387
G01 X20.5500
G01 X20.5648 Y38.9522
G02 X20.6898 Y39.0022 I0.0938 J-0.0532
G02 X20.8571 Y39.1222 I4.3084 J-5.8305
G01 X21.1500 Y38.8293
G01 Y12.7000
G02 X21.2087 Y12.5468 I-0.1916 J-0.1613
G01 X21.2288 Y12.5255
G01 X29.2546 Y4.4750
G01 X24.4707
G01 X15.7354 Y13.2104
G03 X15.3300 Y13.3750 I-0.4392 J-0.4999
G01 X10.8350
G01 X10.8250 Y13.3850
G01 Y59.0000
G01 X11.3500
G01 X11.3648 Y59.0022
G03 X11.8199 Y59.4779 I-1.3729 J1.7690
G03 X11.8228 Y60.1398 I-2.6337 J0.3424
G03 X11.3746 Y60.6185 I-2.1298 J-1.5446
G01 X11.3606 Y60.6239
G01 X11.3300 Y60.6250
G01 X9.2000
G01 X9.1852 Y60.6228
G01 X9.1718 Y60.6163
G01 X8.8810 Y60.3504
G03 X8.7889 Y60.3027 I0.0090 J-0.1301
G01 X8.7352 Y60.2978
G03 X8.0270 Y59.6227 I1.8093 J-2.6072
G01 X7.1098 Y63.2672
G01 X10.3581 Y64.3500
G01 X59.5792
G01 X68.1250 Y55.7793
G01 Y54.7250
G02 X68.1573 Y54.5672 I-0.3831 J-0.1605
G01 X68.7769 Y52.3615
G03 X68.9767 Y52.0808 I0.7075 J0.2921
G01 X69.0252 Y52.0565
G01 X73.2250 Y49.3478
G01 Y46.4350
G01 X73.2177 Y46.4281
G01 X70.9226 Y46.5489
G01 X70.5854 Y46.8854
G01 X70.5733 Y46.8942
G01 X70.5592 Y46.8991
G01 X68.4000 Y46.9000
G01 X68.3852 Y46.8978
G03 X67.9058 Y46.4233 I1.4931 J-1.9883
G01 X67.9009 Y46.4092
G01 X67.9000 Y46.3800
G01 Y45.7750
G01 X67.9022 Y45.7602
G03 X68.3767 Y45.2808 I1.7345 J1.2420
G01 X68.3908 Y45.2759
G01 X70.5500 Y45.2750
G03 X70.6008 Y45.3071 I-0.0038 J0.0622
G01 X70.7465 Y45.4737
G01 X73.7221 Y45.3001
G03 X74.0642 Y45.3689 I-0.0831 J1.2976
G01 X74.1379 Y45.4672
G03 X74.2722 Y45.6825 I-0.1242 J0.2270
G03 X74.3250 Y45.8700 I-0.3587 J0.2022
G01 Y49.6500
G03 X74.2413 Y49.9282 I-16.3253 J-4.7613
G01 X74.0604 Y50.1104
G01 X74.0352 Y50.1279
G01 X69.7939 Y52.8562
G01 X69.2250 Y54.8071
G01 Y56.1250
G03 X69.1750 Y56.1957 I-0.0944 J-0.0137
G03 X69.1663 Y56.2782 I-0.0973 J0.0314
G01 X60.1854 Y65.2853
G03 X59.7800 Y65.4500 I-0.4392 J-0.4998
G01 X10.2750
G02 X10.0852 Y65.4228 I-0.1605 J0.4437
G01 X6.2841 Y64.1474
G01 X6.2708 Y64.1406
G01 X6.1736 Y64.0677
G03 X5.9892 Y63.8902 I0.0736 J-0.2610
G01 X6.0303 Y63.9724
G01 X5.9303 Y63.7724
G01 X5.9257 Y63.7581
G01 X5.9250 Y63.5000
G01 X5.9314 Y63.4684
G01 X7.2000 Y58.4188
G01 Y58.4000
G01 X7.2022 Y58.3852
G03 X7.3439 Y58.1358 I1.4092 J0.6357
G01 X7.4486 Y58.0823
G01 X7.5450 Y58.0100
G03 X7.8944 Y58.0195 I0.1648 J0.3695
G03 X8.1096 Y58.1389 I-0.4136 J0.9991
G01 X9.0750 Y59.1043
G03 X9.1908 Y59.0009 I0.1694 J0.0731
G01 X9.7250 Y59.0000
G01 Y12.8250
G01 X9.7760 Y12.5652
G03 X9.9896 Y12.3396 I0.7479 J0.4945
G00 Z2.0000


;No. 2: Part 2
G00 X14.0396 Y18.2396 Z2.0000
G00 Z0.5000
G01 Z-0.1000
G03 X14.0950 Y18.2250 I0.0426 J0.0491
G01 X16.6250
G01 X16.6398 Y18.2272
G03 X17.1942 Y18.7767 I-1.7371 J2.3074
G03 X17.1978 Y19.5648 I-2.8882 J0.4070
G03 X16.6483 Y20.1192 I-2.3074 J-1.7371
G03 X15.9000 Y20.1250 I-0.3958 J-2.8041
G01 Y20.4500
G01 X15.8978 Y20.4648
G01 X15.8787 Y20.5045
G03 X15.7361 Y20.8346 I-0.4988 J-0.0196
G01 X13.3500 Y23.1959
G01 Y32.5900
G01 X13.3600 Y32.6000
G01 X15.9543
G01 X16.4396 Y32.1146
G01 X16.4517 Y32.1058
G01 X16.4658 Y32.1009
G01 X19.3000 Y32.1000
G01 X19.3148 Y32.1022
G03 X19.9192 Y32.7017 I-1.8998 J2.5201
G03 X19.9228 Y33.5648 I-3.1697 J0.4446
G03 X19.3243 Y34.1937 I-2.7648 J-2.0317
G01 X19.3103 Y34.1989
G01 X19.2800 Y34.2000
G01 X16.4750
G03 X16.4255 Y34.1712 I0.0046 J-0.0648
G01 X15.9543 Y33.7000
G01 X13.3600
G01 X13.3500 Y33.7100
G01 Y55.4400
G01 X13.3600 Y55.4500
G01 X16.5543
G01 X16.2146 Y55.1104
G03 X16.1259 Y54.9842 I0.3512 J-0.3415
G02 X16.0771 Y54.8642 I-1.0477 J0.3560
G01 X16.0750 Y54.8300
G01 Y54.2750
G01 X15.5500
G01 X15.5352 Y54.2728
G03 X15.0558 Y53.7983 I1.4931 J-1.9883
G01 X15.0509 Y53.7842
G01 X15.0500 Y53.7550
G01 Y53.1500
G01 X15.0522 Y53.1352
G03 X15.5267 Y52.6558 I1.9883 J1.4931
G01 X15.5408 Y52.6509
G01 X17.7000 Y52.6500
G01 X17.7148 Y52.6522
G03 X18.1699 Y53.1279 I-1.3729 J1.7690
G03 X18.1728 Y53.7898 I-2.6337 J0.3424
G03 X17.7246 Y54.2685 I-2.1298 J-1.5446
G03 X17.1750 Y54.2750 I-0.2971 J-1.8932
G01 Y54.5043
G01 X18.1207 Y55.4500
G01 X22.5000
G03 X22.8724 Y55.6053 I-0.0321 J0.6011
G01 X22.9906 Y55.6985
G01 X23.7000 Y55.7000
G01 X23.7148 Y55.7022
G03 X24.0942 Y56.0767 I-0.9620 J1.3544
G03 X24.0978 Y56.6148 I-1.9494 J0.2819
G03 X23.7233 Y56.9942 I-1.5626 J-1.1675
G03 X23.4707 Y57.0000 I-0.1480 J-0.9447
G01 X26.9957 Y60.5250
G01 X38.8043
G01 X39.2896 Y60.0396
G01 X39.3017 Y60.0308
G01 X39.3158 Y60.0259
G01 X42.1500 Y60.0250
G03 X42.1995 Y60.0538 I-0.0046 J0.0648
G01 X42.6707 Y60.5250
G01 X53.3410
G01 X63.1589 Y56.8620
G01 X65.6269 Y48.2362
G03 X65.6587 Y48.0968 I0.7438 J0.0962
G01 X65.6689 Y48.0858
G01 X65.7306 Y48.0445
G03 X66.0669 Y47.8500 I0.3643 J0.2419
G01 X66.1342 Y47.8276
G01 X66.1489 Y47.8250
G01 X70.5500
G01 X70.5648 Y47.8272
G03 X71.0442 Y48.3017 I-1.4931 J1.9883
G03 X71.0478 Y48.9648 I-2.4189 J0.3445
G03 X70.5733 Y49.4442 I-1.9883 J-1.4931
G01 X70.5592 Y49.4491
G01 X68.4000 Y49.4500
G01 X68.3852 Y49.4478
G03 X67.9058 Y48.9733 I1.4931 J-1.9883
G02 X67.8900 Y48.9250 I-0.0243 J-0.0188
G01 X66.5650
G01 X64.1231 Y57.4138
G01 X64.0713 Y57.5192
G01 X64.0474 Y57.5908
G03 X63.7738 Y57.8038 I-1.0073 J-1.0116
G01 X53.6425 Y61.5968
G02 X53.4511 Y61.6250 I-0.0442 J0.3644
G01 X42.6707
G01 X42.1854 Y62.1104
G01 X42.1733 Y62.1192
G01 X42.1592 Y62.1241
G01 X39.3250 Y62.1250
G01 X39.3102 Y62.1228
G01 X39.2968 Y62.1163
G01 X39.0066 Y61.8274
G01 X29.3805 Y62.8997
G01 X11.6207 Y62.9000
G01 X11.3854 Y63.1354
G03 X11.3300 Y63.1500 I-0.0426 J-0.0491
G01 X9.2000
G01 X9.1852 Y63.1478
G03 X8.7065 Y62.6996 I1.1671 J-1.7266
G01 X8.7011 Y62.6856
G01 X8.7000 Y62.6550
G01 Y62.0250
G01 X8.7022 Y62.0102
G03 X9.1779 Y61.5551 I1.7690 J1.3729
G01 X9.1922 Y61.5506
G01 X11.3500 Y61.5500
G01 X11.3648 Y61.5522
G01 X11.3782 Y61.5587
G01 X11.6207 Y61.8000
G01 X29.2972
G01 X30.8251 Y61.6267
G01 X26.7750 Y61.6250
G02 X26.4968 Y61.5663 I-0.3677 J1.0536
G01 X22.4648 Y57.5605
G03 X22.3759 Y57.4342 I0.3510 J-0.3416
G02 X22.3308 Y57.3233 I-0.2123 J0.0217
G01 X22.3259 Y57.3092
G01 X22.3250 Y57.0100
G03 X21.9968 Y56.9913 I-0.1298 J-0.6101
G01 X21.6396 Y56.6354
G01 X21.6308 Y56.6233
G02 X21.6150 Y56.5500 I-0.0519 J-0.0272
G01 X12.8000
G03 X12.2500 Y55.9800 I0.0228 J-0.5723
G01 Y22.9750
G03 X12.3344 Y22.6959 I0.8541 J0.1058
G02 X12.4139 Y22.5904 I-1.3988 J-1.1376
G01 X14.8000 Y20.2043
G01 Y20.1250
G01 X14.0750
G01 X14.0602 Y20.1228
G03 X13.5058 Y19.5733 I1.4521 J-2.0198
G01 X13.5009 Y19.5592
G01 X13.5000 Y19.5300
G01 Y18.8000
G01 X13.5022 Y18.7852
G03 X14.0396 Y18.2396 I2.3152 J1.7430
G00 Z2.0000


;No. 3: Part 9
G00 X31.2750 Y18.8000 Z2.0000
G00 Z0.5000
G01 Z-0.1000
G01 X31.2772 Y18.7852
G03 X31.8267 Y18.2308 I2.3074 J1.7371
G01 X31.8408 Y18.2259
G01 X31.8700 Y18.2250
G01 X33.3033
G01 X33.6384 Y17.8659
G02 X33.7389 Y17.7904 I0.0023 J-0.1015
G03 X34.0169 Y17.7007 I0.3570 J0.6302
G01 X35.8543 Y17.7000
G03 X35.9658 Y17.6009 I0.1628 J0.0709
G01 X37.6750 Y17.6000
G01 X37.6898 Y17.6022
G03 X38.0692 Y17.9767 I-1.1675 J1.5626
G03 X38.0728 Y18.5148 I-1.9494 J0.2819
G03 X37.6983 Y18.8942 I-1.5626 J-1.1675
G01 X37.6842 Y18.8991
G01 X37.6550 Y18.9000
G01 X35.9750
G03 X35.8543 Y18.8000 I0.0360 J-0.1663
G01 X34.9750
G01 X34.9957
G01 X34.9750 Y18.8200
G01 Y19.5500
G01 X34.9728 Y19.5648
G03 X34.4233 Y20.1192 I-2.3074 J-1.7371
G01 X34.4092 Y20.1241
G01 X34.3800 Y20.1250
G01 X31.8500
G01 X31.8352 Y20.1228
G03 X31.2808 Y19.5733 I1.7371 J-2.3074
G01 X31.2759 Y19.5592
G01 X31.2750 Y19.5300
G01 Y18.8000
G00 Z2.0000


;No. 4: Part 8
G00 X31.5500 Y22.6750 Z2.0000
G00 Z0.5000
G01 Z-0.1000
G01 X31.5522 Y22.6602
G03 X32.0267 Y22.1808 I1.9883 J1.4931
G01 X32.0408 Y22.1759
G01 X32.0700 Y22.1750
G01 X33.5300
G01 X33.5466 Y22.1713
G01 X37.7285 Y20.1799
G03 X37.9950 Y20.1250 I2.6529 J12.2132
G01 X50.1293
G01 X50.3646 Y19.8896
G03 X50.4200 Y19.8750 I0.0426 J0.0491
G01 X52.5500
G01 X52.5648 Y19.8772
G03 X53.0435 Y20.3254 I-1.1671 J1.7266
G03 X53.0478 Y21.0148 I-2.3199 J0.3589
G03 X52.5721 Y21.4699 I-1.7690 J-1.3729
G01 X52.5578 Y21.4744
G01 X50.4000 Y21.4750
G01 X50.3852 Y21.4728
G01 X50.3718 Y21.4663
G01 X50.1293 Y21.2250
G01 X38.0950
G01 X38.0784 Y21.2287
G01 X34.7076 Y22.8280
G03 X34.6978 Y23.3148 I-1.8108 J0.2070
G03 X34.2233 Y23.7942 I-1.7345 J-1.2420
G01 X34.2092 Y23.7991
G01 X32.0500 Y23.8000
G01 X32.0352 Y23.7978
G03 X31.5558 Y23.3233 I1.4931 J-1.9883
G01 X31.5509 Y23.3092
G01 X31.5500 Y23.2800
G01 Y22.6750
G00 Z2.0000


;No. 5: Part 7
G00 X31.5500 Y25.2000 Z2.0000
G00 Z0.5000
G01 Z-0.1000
G01 X31.5522 Y25.1852
G03 X32.0267 Y24.7058 I1.9883 J1.4931
G01 X32.0408 Y24.7009
G01 X32.0700 Y24.7000
G01 X34.2000
G03 X34.2503 Y24.7308 I-0.0041 J0.0631
G01 X34.5225 Y25.0257
G01 X40.0043 Y25.1985
G01 X40.2002 Y22.9457
G03 X40.2772 Y22.6852 I1.0597 J0.1719
G01 X40.2837 Y22.6718
G02 X40.5069 Y22.4784 I-3.6373 J-4.4229
G03 X40.7712 Y22.4255 I0.2690 J0.6571
G01 X50.1532 Y22.6495
G01 X50.3628 Y22.4166
G03 X50.4200 Y22.4000 I0.0440 J0.0448
G01 X52.5500
G01 X52.5648 Y22.4022
G03 X53.0442 Y22.8767 I-1.2420 J1.7345
G03 X53.0478 Y23.5398 I-2.4189 J0.3445
G03 X52.5733 Y24.0192 I-1.9883 J-1.4931
G01 X52.5592 Y24.0241
G01 X52.5300 Y24.0250
G01 X50.4000
G01 X50.3852 Y24.0228
G01 X50.3718 Y24.0163
G01 X50.0788 Y23.7245
G01 X41.2458 Y23.5509
G01 X41.0498 Y25.8043
G01 X41.0240 Y25.9348
G03 X40.9561 Y26.0892 I-0.3723 J-0.0717
G01 X40.8578 Y26.1629
G01 X40.7854 Y26.2354
G03 X40.4784 Y26.2993 I-1.3443 J-5.6837
G01 X34.4450 Y26.1007
G01 X34.2354 Y26.3104
G01 X34.2233 Y26.3192
G01 X34.2092 Y26.3241
G01 X32.0500 Y26.3250
G01 X32.0352 Y26.3228
G03 X31.5558 Y25.8483 I1.4931 J-1.9883
G01 X31.5509 Y25.8342
G01 X31.5500 Y25.8050
G01 Y25.2000
G00 Z2.0000


;No. 6: Part 6
G00 X31.5500 Y27.7500 Z2.0000
G00 Z0.5000
G01 Z-0.1000
G01 X31.5522 Y27.7352
G03 X32.0267 Y27.2558 I1.9883 J1.4931
G01 X32.0408 Y27.2509
G01 X34.2000 Y27.2500
G01 X34.2148 Y27.2522
G01 X34.2282 Y27.2587
G01 X34.4707 Y27.5000
G01 X38.2000
G03 X38.7500 Y28.0700 I-0.0228 J0.5723
G01 Y33.1500
G03 X38.1800 Y33.7000 I-0.5723 J-0.0228
G01 X35.0707
G01 X34.5854 Y34.1854
G03 X34.5300 Y34.2000 I-0.0426 J-0.0491
G01 X31.7000
G01 X31.6852 Y34.1978
G03 X31.0803 Y33.5724 I1.8588 J-2.4033
G01 X31.0757 Y33.5582
G01 X31.0750 Y33.5300
G01 Y32.7250
G01 X31.0772 Y32.7102
G03 X31.6767 Y32.1058 I2.2101 J1.5923
G01 X31.6908 Y32.1009
G01 X31.7200 Y32.1000
G01 X34.5500
G03 X34.5995 Y32.1288 I-0.0046 J0.0648
G01 X35.0707 Y32.6000
G01 X37.6500
G01 Y28.6100
G01 X37.6400 Y28.6000
G01 X34.4721
G01 X34.2370 Y28.8586
G03 X34.1800 Y28.8750 I-0.0438 J-0.0452
G01 X32.0500
G01 X32.0352 Y28.8728
G03 X31.5558 Y28.3983 I1.4931 J-1.9883
G01 X31.5509 Y28.3842
G01 X31.5500 Y28.3550
G01 Y27.7500
G00 Z2.0000


;No. 7: Part 35
G00 X42.8019 Y25.2613 Z2.0000
G00 Z0.5000
G01 Z-0.1000
G03 X43.2950 Y24.9750 I0.4276 J0.1688
G01 X50.3543
G03 X50.4200 Y24.9500 I0.0521 J0.0380
G01 X52.5500
G01 X52.5648 Y24.9522
G03 X53.0442 Y25.4267 I-1.4931 J1.9883
G03 X53.0478 Y26.0898 I-2.4189 J0.3445
G03 X52.5733 Y26.5692 I-1.9883 J-1.4931
G01 X52.5592 Y26.5741
G01 X50.4000 Y26.5750
G01 X50.3852 Y26.5728
G03 X49.9058 Y26.0983 I1.4931 J-1.9883
G01 X49.9009 Y26.0842
G01 X49.8900 Y26.0750
G01 X43.8247
G01 X43.7250 Y45.9503
G01 X43.7227 Y45.9650
G03 X43.6978 Y46.1398 I-9.6137 J-1.2820
G01 X43.6913 Y46.1532
G03 X43.5805 Y46.2944 I-0.1603 J-0.0118
G01 X43.5416 Y46.3527
G01 X43.5315 Y46.3638
G03 X43.1682 Y46.4995 I-0.7622 J-1.4861
G03 X42.9629 Y46.4391 I0.2477 J-1.2196
G01 X40.7904 Y45.5750
G01 X39.8000
G01 X39.7852 Y45.5728
G03 X39.4058 Y45.1983 I1.1675 J-1.5626
G01 X39.4009 Y45.1842
G01 X39.4000 Y45.1550
G01 Y44.6750
G01 X39.4022 Y44.6602
G03 X39.7767 Y44.2808 I1.5626 J1.1675
G01 X39.7908 Y44.2759
G01 X39.8200 Y44.2750
G01 X41.5000
G01 X41.5148 Y44.2772
G03 X41.8942 Y44.6517 I-1.1675 J1.5626
G01 X41.8991 Y44.6658
G01 X41.9000 Y44.8350
G01 X42.6189 Y45.1242
G01 X42.7250 Y25.5247
G02 X42.8019 Y25.2613 I-7.7656 J-2.4101
G00 Z2.0000


;No. 8: Part 3
G00 X46.6000 Y27.8000 Z2.0000
G00 Z0.5000
G01 Z-0.1000
G01 X46.6022 Y27.7852
G01 X46.6087 Y27.7718
G01 X46.6189 Y27.7608
G03 X46.9419 Y27.5257 I1.0636 J1.1213
G02 X47.0989 Y27.5000 I-1.1043 J-7.2538
G01 X50.3543
G03 X50.4200 Y27.4750 I0.0521 J0.0380
G01 X52.5500
G01 X52.5648 Y27.4772
G03 X53.0442 Y27.9517 I-1.4931 J1.9883
G03 X53.0478 Y28.6148 I-2.4189 J0.3445
G03 X52.5733 Y29.0942 I-1.9883 J-1.4931
G01 X52.5592 Y29.0991
G01 X52.5300 Y29.1000
G01 X50.4000
G01 X50.3852 Y29.0978
G03 X49.9058 Y28.6233 I1.4931 J-1.9883
G01 X49.9009 Y28.6092
G01 X49.8900 Y28.6000
G01 X47.5150
G01 X46.3746 Y33.2326
G01 X45.0999 Y53.5031
G02 X45.0358 Y53.7152 I6.5038 J2.0819
G01 X43.7697 Y56.2474
G03 X43.4724 Y56.5197 I-0.6092 J-0.3666
G01 X39.6408 Y57.7974
G02 X39.4826 Y57.8260 I-0.0117 J0.3880
G01 X32.8026 Y58.1749
G02 X32.5917 Y58.1423 I-0.2133 J0.6808
G01 X24.3928 Y55.7250
G01 X23.2750
G01 X23.2602 Y55.7228
G03 X22.8808 Y55.3483 I1.1675 J-1.5626
G01 X22.8759 Y55.3342
G01 X22.8750 Y55.3050
G01 Y54.8500
G01 X22.8772 Y54.8352
G03 X23.2517 Y54.4558 I1.5626 J1.1675
G01 X23.2658 Y54.4509
G01 X24.9750 Y54.4500
G01 X24.9898 Y54.4522
G03 X25.3692 Y54.8267 I-1.1675 J1.5626
G01 X25.3741 Y54.8408
G01 X25.3750 Y54.8850
G01 X32.8309 Y57.0746
G01 X39.3656 Y56.7254
G01 X42.8894 Y55.5591
G01 X43.9963 Y53.3208
G01 X44.0014 Y53.3019
G01 X45.2751 Y33.0969
G02 X45.3062 Y32.9936 I-0.0979 J-0.0858
G01 X46.5515 Y27.9380
G02 X46.6000 Y27.8000 I-0.0986 J-0.1122
G00 Z2.0000


;No. 9: Part 34
G00 X49.9000 Y30.5250 Z2.0000
G00 Z0.5000
G01 Z-0.1000
G01 X49.9022 Y30.5102
G03 X50.3767 Y30.0308 I1.9883 J1.4931
G01 X50.3908 Y30.0259
G01 X52.5500 Y30.0250
G01 X52.5648 Y30.0272
G03 X53.0442 Y30.5017 I-1.4931 J1.9883
G03 X53.0478 Y31.1648 I-2.4189 J0.3445
G03 X52.5733 Y31.6442 I-1.9883 J-1.4931
G01 X52.5592 Y31.6491
G01 X52.5300 Y31.6500
G01 X50.4000
G01 X50.3852 Y31.6478
G03 X49.9058 Y31.1733 I1.4931 J-1.9883
G01 X49.9009 Y31.1592
G01 X49.9000 Y31.1300
G01 Y30.5250
G00 Z2.0000


;No. 10: Part 33
G00 X49.9000 Y35.6000 Z2.0000
G00 Z0.5000
G01 Z-0.1000
G01 X49.9022 Y35.5852
G03 X50.3767 Y35.1058 I1.9883 J1.4931
G01 X50.3908 Y35.1009
G01 X52.5500 Y35.1000
G01 X52.5648 Y35.1022
G03 X53.0442 Y35.5767 I-1.4931 J1.9883
G03 X53.0478 Y36.2398 I-2.4189 J0.3445
G03 X52.5733 Y36.7192 I-1.9883 J-1.4931
G01 X52.5592 Y36.7241
G01 X52.5300 Y36.7250
G01 X50.4000
G01 X50.3852 Y36.7228
G03 X49.9058 Y36.2483 I1.4931 J-1.9883
G01 X49.9009 Y36.2342
G01 X49.9000 Y36.2050
G01 Y35.6000
G00 Z2.0000


;No. 11: Part 32
G00 X49.9000 Y38.1500 Z2.0000
G00 Z0.5000
G01 Z-0.1000
G01 X49.9022 Y38.1352
G03 X50.3767 Y37.6558 I1.9883 J1.4931
G01 X50.3908 Y37.6509
G01 X52.5500 Y37.6500
G01 X52.5648 Y37.6522
G03 X53.0442 Y38.1267 I-1.4931 J1.9883
G03 X53.0478 Y38.7898 I-2.4189 J0.3445
G03 X52.5733 Y39.2692 I-1.9883 J-1.4931
G01 X52.5592 Y39.2741
G01 X52.5300 Y39.2750
G01 X50.4000
G01 X50.3852 Y39.2728
G03 X49.9058 Y38.7983 I1.4931 J-1.9883
G01 X49.9009 Y38.7842
G01 X49.9000 Y38.7550
G01 Y38.1500
G00 Z2.0000


;No. 12: Part 31
G00 X49.9000 Y40.6750 Z2.0000
G00 Z0.5000
G01 Z-0.1000
G01 X49.9022 Y40.6602
G03 X50.3767 Y40.1808 I1.9883 J1.4931
G01 X50.3908 Y40.1759
G01 X52.5500 Y40.1750
G01 X52.5648 Y40.1772
G03 X53.0442 Y40.6517 I-1.4931 J1.9883
G03 X53.0478 Y41.3148 I-2.4189 J0.3445
G03 X52.5733 Y41.7942 I-1.9883 J-1.4931
G01 X52.5592 Y41.7991
G01 X52.5300 Y41.8000
G01 X50.4000
G01 X50.3852 Y41.7978
G03 X49.9058 Y41.3233 I1.4931 J-1.9883
G01 X49.9009 Y41.3092
G01 X49.9000 Y41.2800
G01 Y40.6750
G00 Z2.0000


;No. 13: Part 30
G00 X49.9000 Y43.2250 Z2.0000
G00 Z0.5000
G01 Z-0.1000
G01 X49.9022 Y43.2102
G03 X50.3767 Y42.7308 I1.9883 J1.4931
G01 X50.3908 Y42.7259
G01 X52.5500 Y42.7250
G01 X52.5648 Y42.7272
G03 X53.0442 Y43.2017 I-1.4931 J1.9883
G03 X53.0478 Y43.8648 I-2.4189 J0.3445
G03 X52.5733 Y44.3442 I-1.9883 J-1.4931
G01 X52.5592 Y44.3491
G01 X52.5300 Y44.3500
G01 X50.4000
G01 X50.3852 Y44.3478
G03 X49.9058 Y43.8733 I1.4931 J-1.9883
G01 X49.9009 Y43.8592
G01 X49.9000 Y43.8300
G01 Y43.2250
G00 Z2.0000


;No. 14: Part 29
G00 X49.9000 Y45.7500 Z2.0000
G00 Z0.5000
G01 Z-0.1000
G01 X49.9022 Y45.7352
G03 X50.3779 Y45.2801 I1.7690 J1.3729
G01 X50.3922 Y45.2756
G01 X52.5500 Y45.2750
G01 X52.5648 Y45.2772
G03 X53.0435 Y45.7254 I-1.5446 J2.1298
G03 X53.0478 Y46.4148 I-2.3199 J0.3589
G03 X52.5721 Y46.8699 I-1.7690 J-1.3729
G01 X52.5578 Y46.8744
G01 X52.5300 Y46.8750
G01 X50.4000
G01 X50.3852 Y46.8728
G03 X49.9065 Y46.4246 I1.5446 J-2.1298
G01 X49.9011 Y46.4106
G01 X49.9000 Y46.3800
G01 Y45.7500
G00 Z2.0000


;No. 15: Part 28
G00 X49.9000 Y48.3000 Z2.0000
G00 Z0.5000
G01 Z-0.1000
G01 X49.9022 Y48.2852
G03 X50.3767 Y47.8058 I1.9883 J1.4931
G01 X50.3908 Y47.8009
G01 X52.5500 Y47.8000
G01 X52.5648 Y47.8022
G03 X53.0442 Y48.2767 I-1.4931 J1.9883
G03 X53.0478 Y48.9398 I-2.0671 J0.3426
G03 X52.8207 Y49.1750 I-0.9959 J-0.7341
G01 X54.9962 Y51.3505
G01 X55.0066 Y51.3564
G01 X59.7347 Y52.5446
G03 X59.8200 Y52.5000 I0.0743 J0.0382
G01 X62.3250
G01 X62.3398 Y52.5022
G03 X62.9187 Y53.0507 I-1.4461 J2.1062
G03 X62.9228 Y53.8398 I-2.7044 J0.4086
G03 X62.3473 Y54.3948 I-2.1917 J-1.6968
G01 X62.3331 Y54.3993
G01 X62.3050 Y54.4000
G01 X59.8000
G01 X59.7852 Y54.3978
G03 X59.2308 Y53.8483 I1.7371 J-2.3074
G01 X59.2259 Y53.8342
G01 X59.2250 Y53.8050
G01 Y53.5650
G01 X54.5938 Y52.4000
G03 X54.4486 Y52.3177 I-0.0064 J-0.1580
G03 X54.3005 Y52.2212 I0.0801 J-0.2849
G01 X51.5043 Y49.4250
G01 X50.4000
G01 X50.3852 Y49.4228
G03 X49.9058 Y48.9483 I1.2420 J-1.7345
G01 X49.9009 Y48.9342
G01 X49.9000 Y48.9050
G01 Y48.3000
G00 Z2.0000


;No. 16: Part 36
G00 X38.4896 Y45.5646 Z2.0000
G00 Z0.5000
G01 Z-0.1000
G03 X38.5450 Y45.5500 I0.0426 J0.0491
G01 X40.2250
G01 X40.2398 Y45.5522
G03 X40.6192 Y45.9267 I-1.1675 J1.5626
G03 X40.6228 Y46.4648 I-1.9494 J0.2819
G03 X40.2483 Y46.8442 I-1.3544 J-0.9620
G03 X39.9250 Y46.8500 I-0.1833 J-1.2099
G01 Y49.6411
G01 X40.9332 Y52.3952
G01 X42.1500 Y52.4000
G01 X42.1648 Y52.4022
G03 X42.7942 Y53.0267 I-1.9811 J2.6265
G03 X42.7978 Y53.8898 I-3.1697 J0.4446
G03 X42.1724 Y54.4947 I-2.4033 J-1.8588
G01 X42.1582 Y54.4993
G01 X42.1300 Y54.5000
G01 X39.3250
G01 X39.3102 Y54.4978
G03 X38.7058 Y53.8983 I1.8998 J-2.5201
G01 X38.7009 Y53.8842
G01 X38.7000 Y53.8550
G01 Y53.0500
G01 X38.7022 Y53.0352
G01 X38.7087 Y53.0218
G01 X39.2889 Y52.4154
G03 X39.3450 Y52.4000 I0.0432 J0.0473
G01 X39.7700
G01 X38.8532 Y49.9426
G02 X38.8250 Y49.7511 I-0.3649 J-0.0441
G01 Y46.8500
G01 X38.5250
G01 X38.5102 Y46.8478
G03 X38.1308 Y46.4733 I0.9620 J-1.3544
G01 X38.1259 Y46.4592
G01 X38.1250 Y45.9500
G01 X38.1272 Y45.9352
G03 X38.4896 Y45.5646 I1.5712 J1.1741
G00 Z2.0000


;No. 17: Part 4
G00 X21.2389 Y46.3404 Z2.0000
G00 Z0.5000
G01 Z-0.1000
G01 X21.2507 Y46.3313
G03 X22.1148 Y46.3272 I0.4460 J2.9836
G03 X22.7442 Y46.9517 I-1.9811 J2.6265
G01 X22.7491 Y46.9658
G01 X22.7500 Y48.6543
G01 X23.2604 Y49.1646
G03 X23.3491 Y49.2908 I-0.3512 J0.3415
G02 X23.3979 Y49.4108 I1.0477 J-0.3560
G01 X23.4000 Y49.4450
G01 Y53.1650
G03 X23.7282 Y53.1837 I0.1298 J0.6101
G01 X24.0854 Y53.5396
G01 X24.0942 Y53.5517
G03 X24.0978 Y54.0898 I-1.6545 J0.2800
G03 X23.7233 Y54.4692 I-1.5626 J-1.1675
G01 X23.7092 Y54.4741
G01 X23.6800 Y54.4750
G01 X22.0250
G01 X22.0102 Y54.4728
G03 X21.6308 Y54.0983 I1.1675 J-1.5626
G01 X21.6259 Y54.0842
G01 X21.6250 Y54.0550
G01 Y53.5750
G01 X21.6272 Y53.5602
G03 X22.0017 Y53.1808 I1.3544 J0.9620
G03 X22.3250 Y53.1750 I0.1833 J1.2099
G01 Y50.2450
G03 X22.1069 Y50.4245 I-0.3087 J-0.1528
G01 X21.2750 Y50.4250
G01 X21.2602 Y50.4228
G03 X20.6558 Y49.8233 I1.5923 J-2.2101
G01 X20.6509 Y49.8092
G01 X20.6500 Y49.7800
G01 Y48.9250
G01 X20.6321 Y48.9386
G01 X18.2604 Y51.3104
G03 X17.9821 Y51.4636 I-0.3989 J-0.3949
G01 X17.7354 Y51.7104
G03 X17.6800 Y51.7250 I-0.0426 J-0.0491
G01 X15.5500
G01 X15.5352 Y51.7228
G03 X15.0558 Y51.2483 I1.4931 J-1.9883
G01 X15.0509 Y51.2342
G01 X15.0500 Y50.6000
G01 X15.0522 Y50.5852
G03 X15.5267 Y50.1058 I1.9883 J1.4931
G01 X15.5408 Y50.1009
G01 X15.5700 Y50.1000
G01 X17.7000
G03 X17.8250 Y50.2043 I-0.0379 J0.1725
G01 X20.0396 Y47.9896
G03 X20.6500 Y47.8150 I0.5082 J0.6222
G01 Y46.9750
G01 X20.6522 Y46.9602
G03 X21.2389 Y46.3404 I2.7766 J2.0405
G00 Z2.0000


;No. 18: Part 5
G00 X18.8624 Y44.0921 Z2.0000
G00 Z0.5000
G01 Z-0.1000
G03 X19.1700 Y44.0250 I0.2399 J0.3614
G01 X24.0043
G01 X24.7250 Y43.3043
G01 Y42.8750
G01 X24.7272 Y42.8602
G03 X25.3267 Y42.2558 I2.2101 J1.5923
G01 X25.3408 Y42.2509
G01 X25.3700 Y42.2500
G01 X28.2000
G01 X28.2148 Y42.2522
G03 X28.8192 Y42.8517 I-1.8998 J2.5201
G01 X34.7510 Y43.1000
G01 X38.4043
G03 X38.5158 Y43.0009 I0.1628 J0.0709
G01 X40.2250 Y43.0000
G01 X40.2398 Y43.0022
G03 X40.6192 Y43.3767 I-1.1675 J1.5626
G03 X40.6228 Y43.9148 I-1.9494 J0.2819
G03 X40.2483 Y44.2942 I-1.5626 J-1.1675
G01 X40.2342 Y44.2991
G01 X40.2050 Y44.3000
G01 X38.5250
G03 X38.4043 Y44.2000 I0.0360 J-0.1663
G01 X34.7250
G01 X28.6207 Y43.9260
G01 X28.2364 Y44.3343
G03 X28.1800 Y44.3500 I-0.0434 J-0.0466
G01 X25.3500
G03 X25.2679 Y44.3028 I0.0301 J-0.1472
G01 X24.6104 Y44.9604
G03 X24.2408 Y45.1224 I-0.4083 J-0.4287
G01 X24.2261 Y45.1250
G01 X19.7100
G01 X19.7000 Y45.1350
G01 Y47.1500
G01 X19.6937 Y47.1815
G01 X19.6735 Y47.2621
G03 X19.4092 Y47.5991 I-0.4806 J-0.1048
G01 X19.3868 Y47.6000
G01 X18.1831 Y48.2018
G03 X18.1728 Y48.7148 I-1.9125 J0.2179
G03 X17.7246 Y49.1935 I-1.7266 J-1.1671
G01 X17.7106 Y49.1989
G01 X17.6800 Y49.2000
G01 X15.5500
G01 X15.5352 Y49.1978
G03 X15.0558 Y48.7233 I1.4931 J-1.9883
G01 X15.0509 Y48.7092
G01 X15.0500 Y48.6800
G01 Y48.0750
G01 X15.0522 Y48.0602
G03 X15.5267 Y47.5808 I1.9883 J1.4931
G01 X15.5408 Y47.5759
G01 X15.5700 Y47.5750
G01 X17.0050
G01 X17.0202 Y47.5714
G01 X18.5917 Y46.7735
G01 X18.6000 Y46.7600
G01 Y44.5750
G03 X18.8624 Y44.0921 I0.6641 J0.0480
G00 Z2.0000


;No. 19: Part 10
G00 X36.8500 Y16.7500 Z2.0000
G00 Z0.5000
G01 Z-0.1000
G01 X36.8522 Y16.7352
G03 X37.2267 Y16.3558 I1.5626 J1.1675
G01 X37.2408 Y16.3509
G01 X38.9500 Y16.3500
G01 X38.9648 Y16.3522
G03 X39.3442 Y16.7267 I-1.1675 J1.5626
G01 X39.3491 Y16.7408
G01 X39.3500 Y16.8100
G01 X40.9956 Y17.3213
G01 X42.4956 Y16.7913
G01 X42.5000 Y16.2250
G01 X42.5022 Y16.2102
G01 X42.5087 Y16.1968
G01 X43.1146 Y15.5896
G03 X43.1700 Y15.5750 I0.0426 J0.0491
G01 X45.9750
G01 X45.9898 Y15.5772
G03 X46.5947 Y16.2026 I-1.8588 J2.4033
G03 X46.5978 Y17.0648 I-3.3777 J0.4431
G03 X45.9983 Y17.6692 I-2.5201 J-1.8998
G01 X45.9842 Y17.6741
G01 X45.9550 Y17.6750
G01 X43.2588
G01 X41.1920 Y18.4220
G03 X41.0073 Y18.4284 I-0.0979 J-0.1582
G03 X40.8157 Y18.4165 I-0.0866 J-0.1542
G01 X38.3422 Y17.6250
G01 X37.2500
G01 X37.2352 Y17.6228
G03 X36.8558 Y17.2483 I1.1675 J-1.5626
G01 X36.8509 Y17.2342
G01 X36.8500 Y17.2050
G01 Y16.7500
G00 Z2.0000


;No. 20: Part 11
G00 X35.5750 Y15.4750 Z2.0000
G00 Z0.5000
G01 Z-0.1000
G01 X35.5772 Y15.4602
G03 X35.9517 Y15.0808 I1.5626 J1.1675
G01 X35.9658 Y15.0759
G01 X35.9950 Y15.0750
G01 X36.9654
G01 X45.0443 Y11.8434
G01 X45.0500 Y11.8350
G01 Y11.1250
G01 X45.0522 Y11.1102
G03 X45.6517 Y10.5058 I2.5201 J1.8998
G01 X45.6658 Y10.5009
G01 X45.6950 Y10.5000
G01 X46.8600
G01 X47.8526 Y7.5591
G01 X47.8695 Y7.5306
G03 X47.9939 Y7.3358 I0.4090 J0.1241
G03 X48.2030 Y7.2212 I0.4985 J0.6614
G01 X50.5961 Y6.4154
G01 X50.6000 Y6.1500
G01 X50.6022 Y6.1352
G03 X51.0767 Y5.6558 I1.7345 J1.2420
G01 X51.0908 Y5.6509
G01 X51.1200 Y5.6500
G01 X53.2500
G01 X53.2648 Y5.6522
G03 X53.5400 Y5.9250 I-1.0658 J1.3506
G01 X55.9029
G01 X56.1380 Y5.6664
G03 X56.1950 Y5.6500 I0.0438 J0.0452
G01 X58.3250
G01 X58.3398 Y5.6522
G01 X58.3532 Y5.6587
G01 X58.6207 Y5.9250
G01 X60.9779
G01 X61.2130 Y5.6664
G03 X61.2700 Y5.6500 I0.0438 J0.0452
G01 X63.4000
G01 X63.4148 Y5.6522
G01 X63.4282 Y5.6587
G01 X63.6957 Y5.9250
G01 X66.0543
G01 X66.3146 Y5.6646
G01 X66.3267 Y5.6558
G01 X66.3408 Y5.6509
G01 X68.5000 Y5.6500
G01 X68.5148 Y5.6522
G03 X68.9699 Y6.1279 I-1.3729 J1.7690
G03 X68.9728 Y6.7898 I-2.6337 J0.3424
G03 X68.5246 Y7.2685 I-2.1298 J-1.5446
G01 X68.5106 Y7.2739
G01 X68.4800 Y7.2750
G01 X66.3500
G01 X66.3352 Y7.2728
G01 X66.3218 Y7.2663
G01 X66.0562 Y7.0255
G01 X63.6950 Y7.0250
G01 X63.4336 Y7.2620
G01 X63.4212 Y7.2703
G01 X63.4069 Y7.2745
G01 X61.2500 Y7.2750
G01 X61.2352 Y7.2728
G01 X61.2218 Y7.2663
G01 X60.9793 Y7.0250
G01 X58.6200
G01 X58.3586 Y7.2620
G01 X58.3462 Y7.2703
G01 X58.3319 Y7.2745
G01 X56.1750 Y7.2750
G01 X56.1602 Y7.2728
G01 X56.1468 Y7.2663
G01 X55.9043 Y7.0250
G01 X53.5207
G01 X53.2854 Y7.2604
G01 X53.2733 Y7.2692
G01 X53.2592 Y7.2741
G01 X51.4830 Y7.2750
G01 X48.7896 Y8.1646
G01 X48.0191 Y10.5000
G01 X48.5000
G01 X48.5148 Y10.5022
G01 X48.5282 Y10.5087
G01 X49.1346 Y11.0889
G01 X49.1437 Y11.1007
G03 X49.1478 Y11.9898 I-3.0718 J0.4585
G03 X48.5224 Y12.5947 I-2.4033 J-1.8588
G01 X48.5082 Y12.5993
G01 X48.4800 Y12.6000
G01 X46.1096
G01 X38.0807 Y15.8066
G03 X38.0663 Y16.0032 I-0.3678 J0.0719
G01 X37.7104 Y16.3604
G01 X37.6983 Y16.3692
G01 X37.6842 Y16.3741
G01 X35.9750 Y16.3750
G01 X35.9602 Y16.3728
G03 X35.5808 Y15.9983 I1.1675 J-1.5626
G01 X35.5759 Y15.9842
G01 X35.5750 Y15.9550
G01 Y15.4750
G00 Z2.0000


;No. 21: Part 13
G00 X50.1250 Y16.2250 Z2.0000
G00 Z0.5000
G01 Z-0.1000
G01 X50.1272 Y16.2102
G03 X50.7257 Y15.5813 I2.7648 J2.0317
G01 X50.7397 Y15.5761
G01 X50.7700 Y15.5750
G01 X53.6000
G01 X53.6148 Y15.5772
G03 X54.2197 Y16.2026 I-1.8588 J2.4033
G01 X54.2243 Y16.2168
G01 X54.2250 Y17.0500
G01 X54.2228 Y17.0648
G03 X53.8028 Y17.4821 I-1.8276 J-1.4193
G01 X57.6854 Y21.3646
G03 X57.7993 Y21.6919 I-0.6846 J0.4219
G01 X57.8000 Y27.7000
G01 X57.7943 Y27.7307
G01 X56.5237 Y33.2612
G01 X56.4963 Y33.3192
G01 X56.4724 Y33.3908
G03 X56.1527 Y33.6666 I-0.5375 J-0.2999
G02 X55.9824 Y33.7009 I0.0443 J0.6598
G01 X52.8974 Y33.8490
G01 X52.5854 Y34.1604
G03 X52.5300 Y34.1750 I-0.0426 J-0.0491
G01 X50.4000
G01 X50.3852 Y34.1728
G03 X49.9065 Y33.7246 I1.5446 J-2.1298
G01 X49.9011 Y33.7106
G01 X49.9000 Y33.6800
G01 Y33.0500
G01 X49.9022 Y33.0352
G03 X50.3779 Y32.5801 I1.7690 J1.3729
G01 X50.3922 Y32.5756
G01 X52.5500 Y32.5750
G03 X52.7676 Y32.7490 I-0.0873 J0.3324
G01 X55.5324 Y32.6022
G01 X56.7000 Y27.5443
G01 Y21.9456
G01 X52.4542 Y17.6750
G01 X50.7500
G01 X50.7352 Y17.6728
G03 X50.1308 Y17.0733 I1.5923 J-2.2101
G01 X50.1259 Y17.0592
G01 X50.1250 Y17.0300
G01 Y16.2250
G00 Z2.0000


;No. 22: Part 12
G00 X50.6000 Y11.2250 Z2.0000
G00 Z0.5000
G01 Z-0.1000
G01 X50.6022 Y11.2102
G03 X51.0779 Y10.7551 I1.7690 J1.3729
G01 X51.0922 Y10.7506
G01 X51.1200 Y10.7500
G01 X53.2500
G01 X53.2648 Y10.7522
G03 X53.7435 Y11.2004 I-1.5446 J2.1298
G03 X53.7478 Y11.8898 I-2.3199 J0.3589
G03 X53.3664 Y12.2563 I-1.4423 J-1.1191
G01 X62.6787 Y25.0544
G01 X69.2339 Y27.4750
G01 X70.5500
G01 X70.5648 Y27.4772
G03 X71.0199 Y27.9529 I-1.3729 J1.7690
G03 X71.0228 Y28.6148 I-2.6337 J0.3424
G03 X70.5746 Y29.0935 I-2.1298 J-1.5446
G01 X70.5606 Y29.0989
G01 X70.5300 Y29.1000
G01 X68.4000
G01 X68.3852 Y29.0978
G03 X67.9058 Y28.6233 I1.4931 J-1.9883
G01 X67.9009 Y28.6092
G01 X67.9000 Y28.5800
G01 Y28.1650
G01 X62.1328 Y26.0469
G02 X61.8858 Y25.8561 I-0.6148 J0.5403
G01 X61.8728 Y25.8382
G01 X52.0745 Y12.3500
G01 X51.1000
G01 X51.0852 Y12.3478
G03 X50.6065 Y11.8996 I1.1671 J-1.7266
G01 X50.6011 Y11.8856
G01 X50.6000 Y11.8550
G01 Y11.2250
G00 Z2.0000


;No. 23: Part 14
G00 X50.6000 Y8.7000 Z2.0000
G00 Z0.5000
G01 Z-0.1000
G01 X50.6022 Y8.6852
G03 X51.0767 Y8.2058 I1.9883 J1.4931
G01 X51.0908 Y8.2009
G01 X53.2500 Y8.2000
G01 X53.2648 Y8.2022
G03 X53.7442 Y8.6767 I-1.4931 J1.9883
G03 X53.7478 Y9.3398 I-2.4189 J0.3445
G03 X53.2733 Y9.8192 I-1.9883 J-1.4931
G01 X53.2592 Y9.8241
G01 X53.2300 Y9.8250
G01 X51.1000
G01 X51.0852 Y9.8228
G03 X50.6058 Y9.3483 I1.4931 J-1.9883
G01 X50.6009 Y9.3342
G01 X50.6000 Y9.3050
G01 Y8.7000
G00 Z2.0000


;No. 24: Part 15
G00 X55.6750 Y8.7000 Z2.0000
G00 Z0.5000
G01 Z-0.1000
G01 X55.6772 Y8.6852
G03 X56.1517 Y8.2058 I1.9883 J1.4931
G01 X56.1658 Y8.2009
G01 X58.3250 Y8.2000
G01 X58.3398 Y8.2022
G03 X58.8192 Y8.6767 I-1.4931 J1.9883
G03 X58.8228 Y9.3398 I-2.4189 J0.3445
G03 X58.3483 Y9.8192 I-1.9883 J-1.4931
G01 X58.3342 Y9.8241
G01 X58.3050 Y9.8250
G01 X56.1750
G01 X56.1602 Y9.8228
G03 X55.6808 Y9.3483 I1.4931 J-1.9883
G01 X55.6759 Y9.3342
G01 X55.6750 Y9.3050
G01 Y8.7000
G00 Z2.0000


;No. 25: Part 16
G00 X55.6750 Y11.2250 Z2.0000
G00 Z0.5000
G01 Z-0.1000
G01 X55.6772 Y11.2102
G03 X56.1529 Y10.7551 I1.7690 J1.3729
G01 X56.1672 Y10.7506
G01 X56.1950 Y10.7500
G01 X58.3250
G01 X58.3398 Y10.7522
G03 X58.8185 Y11.2004 I-1.5446 J2.1298
G03 X58.8228 Y11.8898 I-2.3199 J0.3589
G03 X58.6028 Y12.1321 I-1.3516 J-1.0061
G01 X58.9604 Y12.4896
G01 X59.0166 Y12.5723
G01 X64.0108 Y22.5598
G01 X69.0282 Y24.9212
G01 X69.0450 Y24.9250
G01 X70.5500
G01 X70.5648 Y24.9272
G03 X71.0199 Y25.4029 I-1.3729 J1.7690
G03 X71.0228 Y26.0648 I-2.6337 J0.3424
G03 X70.5746 Y26.5435 I-2.1298 J-1.5446
G01 X70.5606 Y26.5489
G01 X70.5300 Y26.5500
G01 X68.4000
G01 X68.3852 Y26.5478
G03 X67.9058 Y26.0733 I1.4931 J-1.9883
G01 X67.9009 Y26.0592
G01 X67.9000 Y26.0300
G01 Y25.6150
G01 X67.8925 Y25.6031
G01 X63.3786 Y23.4702
G01 X63.3662 Y23.4619
G03 X63.2389 Y23.3611 I0.0016 J-0.1328
G03 X63.1146 Y23.2354 I0.0952 J-0.2184
G01 X63.1058 Y23.2233
G01 X58.0839 Y13.1546
G01 X57.2793 Y12.3500
G01 X56.1750
G01 X56.1602 Y12.3478
G03 X55.6815 Y11.8996 I1.1671 J-1.7266
G01 X55.6761 Y11.8856
G01 X55.6750 Y11.8550
G01 Y11.2250
G00 Z2.0000


;No. 26: Part 17
G00 X60.7750 Y11.2250 Z2.0000
G00 Z0.5000
G01 Z-0.1000
G01 X60.7772 Y11.2102
G03 X61.2267 Y10.7558 I1.8819 J1.4117
G01 X61.2408 Y10.7509
G01 X61.2700 Y10.7500
G01 X63.4000
G01 X63.4148 Y10.7522
G03 X63.8935 Y11.2004 I-1.5446 J2.1298
G03 X63.8978 Y11.8898 I-2.3199 J0.3589
G03 X63.4221 Y12.3449 I-1.7690 J-1.3729
G03 X63.1150 Y12.3500 I-0.1746 J-1.2569
G01 X65.3422 Y20.7641
G01 X69.0021 Y22.3962
G01 X69.0200 Y22.4000
G01 X70.5500
G01 X70.5648 Y22.4022
G03 X71.0192 Y22.8517 I-1.1719 J1.6395
G03 X71.0228 Y23.5398 I-2.5128 J0.3570
G03 X70.5733 Y23.9942 I-1.8819 J-1.4117
G01 X70.5592 Y23.9991
G01 X70.5300 Y24.0000
G01 X68.4000
G01 X68.3852 Y23.9978
G03 X67.9065 Y23.5496 I1.5446 J-2.1298
G01 X67.9011 Y23.5356
G01 X67.9000 Y23.5050
G01 Y23.1150
G01 X67.8930 Y23.1042
G01 X64.6545 Y21.6456
G01 X64.4973 Y21.5416
G01 X64.4396 Y21.4854
G02 X64.3521 Y21.2892 I-0.4116 J0.0662
G01 X61.9869 Y12.3515
G01 X61.2500 Y12.3500
G01 X61.2352 Y12.3478
G03 X60.7808 Y11.8983 I1.1719 J-1.6395
G01 X60.7759 Y11.8842
G01 X60.7750 Y11.8550
G01 Y11.2250
G00 Z2.0000


;No. 27: Part 18
G00 X60.7750 Y8.7000 Z2.0000
G00 Z0.5000
G01 Z-0.1000
G01 X60.7772 Y8.6852
G03 X61.2254 Y8.2065 I2.1298 J1.5446
G01 X61.2394 Y8.2011
G01 X61.2700 Y8.2000
G01 X63.4000
G01 X63.4148 Y8.2022
G03 X63.8942 Y8.6767 I-1.4931 J1.9883
G03 X63.8978 Y9.3398 I-2.4189 J0.3445
G03 X63.4233 Y9.8192 I-1.9883 J-1.4931
G01 X63.4092 Y9.8241
G01 X63.3800 Y9.8250
G01 X61.2500
G01 X61.2352 Y9.8228
G03 X60.7801 Y9.3471 I1.3729 J-1.7690
G01 X60.7756 Y9.3328
G01 X60.7750 Y9.3050
G01 Y8.7000
G00 Z2.0000


;No. 28: Part 19
G00 X65.8500 Y8.7000 Z2.0000
G00 Z0.5000
G01 Z-0.1000
G01 X65.8522 Y8.6852
G03 X66.3267 Y8.2058 I1.9883 J1.4931
G01 X66.3408 Y8.2009
G01 X68.5000 Y8.2000
G01 X68.5148 Y8.2022
G03 X68.9699 Y8.6779 I-1.3729 J1.7690
G03 X68.9728 Y9.3398 I-2.6337 J0.3424
G03 X68.5246 Y9.8185 I-2.1298 J-1.5446
G01 X68.5106 Y9.8239
G01 X68.4800 Y9.8250
G01 X66.3500
G01 X66.3352 Y9.8228
G03 X65.8558 Y9.3483 I1.4931 J-1.9883
G01 X65.8509 Y9.3342
G01 X65.8500 Y9.3050
G01 Y8.7000
G00 Z2.0000


;No. 29: Part 20
G00 X65.8500 Y11.2250 Z2.0000
G00 Z0.5000
G01 Z-0.1000
G01 X65.8522 Y11.2102
G03 X66.3279 Y10.7551 I1.7690 J1.3729
G01 X66.3422 Y10.7506
G01 X66.3700 Y10.7500
G01 X68.5000
G01 X68.5148 Y10.7522
G03 X68.9692 Y11.2017 I-1.4117 J1.8819
G03 X68.9728 Y11.8898 I-2.5128 J0.3570
G03 X68.5233 Y12.3442 I-1.8819 J-1.4117
G01 X68.5092 Y12.3491
G01 X68.4800 Y12.3500
G01 X67.5174
G01 X69.7863 Y19.8472
G01 X70.5500 Y19.8500
G01 X70.5648 Y19.8522
G03 X71.0199 Y20.3279 I-1.3729 J1.7690
G03 X71.0228 Y20.9898 I-2.6337 J0.3424
G03 X70.5746 Y21.4685 I-2.1298 J-1.5446
G01 X70.5606 Y21.4739
G01 X70.5300 Y21.4750
G01 X68.4000
G01 X68.3852 Y21.4728
G03 X67.9058 Y20.9983 I1.4931 J-1.9883
G01 X67.9009 Y20.9842
G01 X67.9000 Y20.9550
G01 Y20.3500
G01 X67.9022 Y20.3352
G01 X67.9087 Y20.3218
G01 X68.3646 Y19.8646
G03 X68.6576 Y19.8500 I0.1605 J0.2726
G01 X66.3887 Y12.3528
G03 X66.3218 Y12.3413 I-0.0088 J-0.1496
G01 X65.8657 Y11.9114
G01 X65.8565 Y11.8996
G01 X65.8511 Y11.8856
G01 X65.8500 Y11.8550
G01 Y11.2250
G00 Z2.0000


;No. 30: Part 21
G00 X67.9000 Y30.5000 Z2.0000
G00 Z0.5000
G01 Z-0.1000
G01 X67.9022 Y30.4852
G03 X68.3767 Y30.0058 I1.9883 J1.4931
G01 X68.3908 Y30.0009
G01 X70.5500 Y30.0000
G03 X70.6984 Y30.1500 I-0.0439 J0.1918
G01 X78.2043
G03 X78.3158 Y30.0509 I0.1628 J0.0709
G01 X80.0250 Y30.0500
G01 X80.0398 Y30.0522
G03 X80.4192 Y30.4267 I-0.9620 J1.3544
G03 X80.4228 Y30.9648 I-1.9494 J0.2819
G03 X80.0483 Y31.3442 I-1.5626 J-1.1675
G01 X80.0342 Y31.3491
G01 X78.8707 Y31.3500
G01 X76.6697 Y33.5510
G01 X77.0614 Y33.9657
G01 X77.0699 Y33.9779
G03 X77.0728 Y34.8398 I-3.4546 J0.4425
G03 X76.4733 Y35.4442 I-2.5201 J-1.8998
G01 X76.4592 Y35.4491
G01 X76.4300 Y35.4500
G01 X73.6250
G01 X73.6102 Y35.4478
G03 X72.9813 Y34.8493 I2.0317 J-2.7648
G01 X72.9761 Y34.8353
G01 X72.9750 Y34.8050
G01 Y34.0000
G01 X72.9772 Y33.9852
G03 X73.6017 Y33.3558 I2.6265 J1.9811
G01 X73.6158 Y33.3509
G01 X75.3045 Y33.3500
G01 X77.4283 Y31.2500
G01 X70.9457
G01 X70.5854 Y31.6104
G01 X70.5733 Y31.6192
G01 X70.5592 Y31.6241
G01 X68.4000 Y31.6250
G01 X68.3852 Y31.6228
G03 X67.9058 Y31.1483 I1.4931 J-1.9883
G01 X67.9009 Y31.1342
G01 X67.9000 Y31.1050
G01 Y30.5000
G00 Z2.0000


;No. 31: Part 22
G00 X67.9000 Y33.0500 Z2.0000
G00 Z0.5000
G01 Z-0.1000
G01 X67.9022 Y33.0352
G03 X68.3767 Y32.5558 I1.9883 J1.4931
G01 X68.3908 Y32.5509
G01 X70.5500 Y32.5500
G01 X70.5648 Y32.5522
G03 X71.0199 Y33.0279 I-1.3729 J1.7690
G03 X71.0228 Y33.6898 I-2.6337 J0.3424
G03 X70.5746 Y34.1685 I-2.1298 J-1.5446
G01 X70.5606 Y34.1739
G01 X70.5300 Y34.1750
G01 X68.4000
G01 X68.3852 Y34.1728
G03 X67.9058 Y33.6983 I1.4931 J-1.9883
G01 X67.9009 Y33.6842
G01 X67.9000 Y33.6550
G01 Y33.0500
G00 Z2.0000


;No. 32: Part 23
G00 X67.9000 Y35.5750 Z2.0000
G00 Z0.5000
G01 Z-0.1000
G01 X67.9022 Y35.5602
G03 X68.3779 Y35.1051 I1.7690 J1.3729
G01 X68.3922 Y35.1006
G01 X70.5500 Y35.1000
G01 X70.5648 Y35.1022
G03 X71.0192 Y35.5517 I-1.4117 J1.8819
G03 X71.0228 Y36.2398 I-2.5128 J0.3570
G03 X70.5733 Y36.6942 I-1.8819 J-1.4117
G01 X70.5592 Y36.6991
G01 X70.5300 Y36.7000
G01 X68.4000
G01 X68.3852 Y36.6978
G03 X67.9065 Y36.2496 I1.5446 J-2.1298
G01 X67.9011 Y36.2356
G01 X67.9000 Y36.2050
G01 Y35.5750
G00 Z2.0000


;No. 33: Part 24
G00 X67.9000 Y38.1250 Z2.0000
G00 Z0.5000
G01 Z-0.1000
G01 X67.9022 Y38.1102
G03 X68.3767 Y37.6308 I1.9883 J1.4931
G01 X68.3908 Y37.6259
G01 X70.5500 Y37.6250
G01 X70.5648 Y37.6272
G03 X71.0199 Y38.1029 I-1.3729 J1.7690
G03 X71.0228 Y38.7648 I-2.6337 J0.3424
G03 X70.5746 Y39.2435 I-2.1298 J-1.5446
G01 X70.5606 Y39.2489
G01 X70.5300 Y39.2500
G01 X68.4000
G01 X68.3852 Y39.2478
G03 X67.9058 Y38.7733 I1.4931 J-1.9883
G01 X67.9009 Y38.7592
G01 X67.9000 Y38.7300
G01 Y38.1250
G00 Z2.0000


;No. 34: Part 25
G00 X67.9000 Y40.6750 Z2.0000
G00 Z0.5000
G01 Z-0.1000
G01 X67.9022 Y40.6602
G03 X68.3767 Y40.1808 I1.9883 J1.4931
G01 X68.3908 Y40.1759
G01 X70.5500 Y40.1750
G01 X70.5648 Y40.1772
G03 X71.0199 Y40.6529 I-1.3729 J1.7690
G03 X71.0228 Y41.3148 I-2.6337 J0.3424
G03 X70.5746 Y41.7935 I-2.1298 J-1.5446
G01 X70.5606 Y41.7989
G01 X70.5300 Y41.8000
G01 X68.4000
G01 X68.3852 Y41.7978
G03 X67.9058 Y41.3233 I1.4931 J-1.9883
G01 X67.9009 Y41.3092
G01 X67.9000 Y41.2800
G01 Y40.6750
G00 Z2.0000


;No. 35: Part 26
G00 X67.9000 Y43.2000 Z2.0000
G00 Z0.5000
G01 Z-0.1000
G01 X67.9022 Y43.1852
G03 X68.3767 Y42.7058 I1.9883 J1.4931
G01 X68.3908 Y42.7009
G01 X70.5500 Y42.7000
G01 X70.5648 Y42.7022
G03 X71.0199 Y43.1779 I-1.3729 J1.7690
G03 X71.0228 Y43.8398 I-2.6337 J0.3424
G03 X70.5746 Y44.3185 I-2.1298 J-1.5446
G01 X70.5606 Y44.3239
G01 X70.5300 Y44.3250
G01 X68.4000
G01 X68.3852 Y44.3228
G03 X67.9058 Y43.8483 I1.4931 J-1.9883
G01 X67.9009 Y43.8342
G01 X67.9000 Y43.8050
G01 Y43.2000
G00 Z2.0000


;No. 36: Part 27
G00 X72.9750 Y41.6250 Z2.0000
G00 Z0.5000
G01 Z-0.1000
G01 X72.9772 Y41.6102
G03 X73.6017 Y40.9808 I2.6265 J1.9811
G01 X73.6158 Y40.9759
G01 X75.3043 Y40.9750
G01 X79.9000 Y36.3793
G01 Y32.6100
G03 X79.5718 Y32.5913 I-0.1298 J-0.6101
G01 X79.2146 Y32.2354
G01 X79.2058 Y32.2233
G01 X79.2009 Y32.2092
G01 X79.2000 Y32.1800
G01 Y31.7250
G01 X79.2022 Y31.7102
G03 X79.5767 Y31.3308 I1.3544 J0.9620
G01 X79.5908 Y31.3259
G01 X81.3000 Y31.3250
G01 X81.3148 Y31.3272
G03 X81.6942 Y31.7017 I-1.1675 J1.5626
G03 X81.6978 Y32.2148 I-1.5721 J0.2674
G03 X81.3233 Y32.5942 I-1.3544 J-0.9620
G03 X81.0000 Y32.6100 I-0.2429 J-1.6567
G01 Y46.7750
G01 X80.9978 Y46.7898
G03 X80.8361 Y47.1596 I-0.6087 J-0.0458
G01 X75.2778 Y52.7179
G03 X75.6184 Y53.0502 I-1.0797 J1.4476
G03 X75.6228 Y53.8398 I-2.6231 J0.4093
G03 X75.0473 Y54.3948 I-2.1917 J-1.6968
G01 X75.0331 Y54.3993
G01 X75.0050 Y54.4000
G01 X72.5000
G01 X72.4852 Y54.3978
G03 X71.9308 Y53.8483 I1.7371 J-2.3074
G01 X71.9259 Y53.8342
G01 X71.9250 Y53.8050
G01 Y53.0750
G01 X71.9272 Y53.0602
G03 X72.4767 Y52.5058 I2.3074 J1.7371
G01 X72.4908 Y52.5009
G01 X73.9294 Y52.5000
G01 X79.9000 Y46.5542
G01 Y37.9457
G01 X76.6697 Y41.1760
G01 X77.0614 Y41.5907
G01 X77.0699 Y41.6029
G03 X77.0728 Y42.4648 I-3.4546 J0.4425
G03 X76.4733 Y43.0692 I-2.5201 J-1.8998
G01 X76.4592 Y43.0741
G01 X76.4300 Y43.0750
G01 X73.6250
G01 X73.6102 Y43.0728
G03 X72.9813 Y42.4743 I2.0317 J-2.7648
G01 X72.9761 Y42.4603
G01 X72.9750 Y42.4300
G01 Y41.6250
G00 Z2.0000
G00 X0.0000 Y0.0000

M05
